Origami/32x32/apps/mps.svg

<svg width="32" height="32" version="1" xmlns="http://www.w3.org/2000/svg">
 <path d="M 3.4003906,31 C 2.6247906,31 2,30.375209 2,29.599609 v -1 C 2,29.375209 2.6247906,30 3.4003906,30 H 16 28.599609 C 29.375209,30 30,29.375209 30,28.599609 v 1 C 30,30.375209 29.375209,31 28.599609,31 H 16 Z" style="opacity:.2"/>
 <path d="m16 2h-12.6c-0.7756 0-1.4 0.6244-1.4 1.4v12.6h14z" style="fill:#f7c73c"/>
 <path d="m16 2h12.6c0.7756 0 1.4 0.6244 1.4 1.4v12.6h-14z" style="fill:#21d789"/>
 <path d="m16 30h-12.6c-0.7756 0-1.4-0.6244-1.4-1.4v-12.6h14z" style="fill:#21d789"/>
 <path d="m16 30h12.6c0.7756 0 1.4-0.6244 1.4-1.4v-12.6h-14z" style="fill:#2086e7"/>
 <path d="M 3.4003906 2 C 2.6247906 2 2 2.6247906 2 3.4003906 L 2 4.4003906 C 2 3.6247906 2.6247906 3 3.4003906 3 L 16 3 L 28.599609 3 C 29.375209 3 30 3.6247906 30 4.4003906 L 30 3.4003906 C 30 2.6247906 29.375209 2 28.599609 2 L 16 2 L 3.4003906 2 z" style="fill:#ffffff;opacity:.2"/>
 <rect x="6" y="6" width="20" height="20" style="fill:#3f3f3f"/>
 <path d="m7.5071212 23.49995h7.9999998" style="fill:none;opacity:.2;stroke-linecap:round;stroke:#000000"/>
 <path d="m7.5071212 22.49995h7.9999998" style="fill:none;stroke-linecap:round;stroke:#ffffff"/>
 <path d="m12.504 17.492879v-7.999999m-4.9997073 0 2.4957073 4 2.504-4m-4.9997073 7.999999v-7.999999" style="fill:none;opacity:.2;stroke-linecap:round;stroke-linejoin:round;stroke-width:.99999994;stroke:#000000"/>
 <path d="m12.504 16.492879v-7.999999m-4.9997073 0 2.4957073 4 2.504-4m-4.9997073 7.999999v-7.999999" style="fill:none;stroke-linecap:round;stroke-linejoin:round;stroke-width:.99999994;stroke:#ffffff"/>
 <path d="m14.507074 13.525957s4.000002 0.4645 4.000002-2.000002c0-2.464498-4.000002-1.9999978-4.000002-1.9999978m9.8e-5 8.0001008v-8.0000025" style="fill:none;opacity:.2;stroke-linecap:round;stroke-linejoin:bevel;stroke-width:.99999994;stroke:#000000"/>
 <path d="m14.507074 12.525957s4.000002 0.4645 4.000002-2.000002c0-2.464498-4.000002-1.9999978-4.000002-1.9999978m9.8e-5 8.0001008v-8.0000025" style="fill:none;stroke-linecap:round;stroke-linejoin:bevel;stroke-width:.99999994;stroke:#ffffff"/>
 <path d="m20.503232 16.499518s0.504385 1.000962 2.000001 1.000482c1.495612-4.84e-4 1.999998-1.000482 1.999998-2.000481 0-4.214389-3.999999 0.211162-3.988018-3.990705-0.01209-1.009296 0.471866-2.0092953 1.98802-2.0092953 1.51615 0 1.999884 0.9999993 1.999884 0.9999993" style="fill:none;opacity:.2;stroke-linecap:round;stroke-linejoin:round;stroke-width:.99999994;stroke:#000000"/>
 <path d="m20.503232 15.499518s0.504385 1.000962 2.000001 1.000482c1.495612-4.84e-4 1.999998-1.000482 1.999998-2.000481 0-4.214389-3.999999 0.211162-3.988018-3.990705-0.01209-1.0092961 0.471866-2.0092953 1.98802-2.0092953 1.51615 0 1.999884 0.9999992 1.999884 0.9999992" style="fill:none;stroke-linecap:round;stroke-linejoin:round;stroke-width:.99999994;stroke:#ffffff"/>
</svg>

<svg xmlns="http://www.w3.org/2000/svg" width="32" height="32" version="1">
 <path style="opacity:0.2" d="M 3.4003906,31 C 2.6247906,31 2,30.375209 2,29.599609 v -1 C 2,29.375209 2.6247906,30 3.4003906,30 H 16 28.599609 C 29.375209,30 30,29.375209 30,28.599609 v 1 C 30,30.375209 29.375209,31 28.599609,31 H 16 Z"/>
 <path style="fill:#f7c73c" d="M 16,2 H 3.4 C 2.6244,2 2,2.6244 2,3.4 V 16 h 14 z"/>
 <path style="fill:#21d789" d="M 16,2 H 28.6 C 29.3756,2 30,2.6244 30,3.4 V 16 H 16 Z"/>
 <path style="fill:#21d789" d="M 16,30 H 3.4 C 2.6244,30 2,29.3756 2,28.6 V 16 h 14 z"/>
 <path style="fill:#2086e7" d="M 16,30 H 28.6 C 29.3756,30 30,29.3756 30,28.6 V 16 H 16 Z"/>
 <path style="fill:#ffffff;opacity:0.2" d="M 3.4003906 2 C 2.6247906 2 2 2.6247906 2 3.4003906 L 2 4.4003906 C 2 3.6247906 2.6247906 3 3.4003906 3 L 16 3 L 28.599609 3 C 29.375209 3 30 3.6247906 30 4.4003906 L 30 3.4003906 C 30 2.6247906 29.375209 2 28.599609 2 L 16 2 L 3.4003906 2 z"/>
 <rect style="fill:#3f3f3f" width="20" height="20" x="6" y="6"/>
 <path style="opacity:0.2;fill:none;stroke:#000000;stroke-linecap:round" d="M 7.5071212,23.49995 H 15.507121"/>
 <path style="fill:none;stroke:#ffffff;stroke-linecap:round" d="M 7.5071212,22.49995 H 15.507121"/>
 <path style="opacity:0.2;fill:none;stroke:#000000;stroke-width:0.99999994;stroke-linecap:round;stroke-linejoin:round" d="M 12.504,17.492879 V 9.49288 m -4.9997073,0 2.4957073,4 2.504,-4 M 7.5042927,17.492879 V 9.49288"/>
 <path style="fill:none;stroke:#ffffff;stroke-width:0.99999994;stroke-linecap:round;stroke-linejoin:round" d="M 12.504,16.492879 V 8.49288 m -4.9997073,0 2.4957073,4 2.504,-4 M 7.5042927,16.492879 V 8.49288"/>
 <path style="opacity:0.2;fill:none;stroke:#000000;stroke-width:0.99999994;stroke-linecap:round;stroke-linejoin:bevel" d="m 14.507074,13.525957 c 0,0 4.000002,0.4645 4.000002,-2.000002 0,-2.464498 -4.000002,-1.9999978 -4.000002,-1.9999978 m 9.8e-5,8.0001008 V 9.5260555"/>
 <path style="fill:none;stroke:#ffffff;stroke-width:0.99999994;stroke-linecap:round;stroke-linejoin:bevel" d="m 14.507074,12.525957 c 0,0 4.000002,0.4645 4.000002,-2.000002 0,-2.464498 -4.000002,-1.9999978 -4.000002,-1.9999978 m 9.8e-5,8.0001008 V 8.5260555"/>
 <path style="opacity:0.2;fill:none;stroke:#000000;stroke-width:0.99999994;stroke-linecap:round;stroke-linejoin:round" d="m 20.503232,16.499518 c 0,0 0.504385,1.000962 2.000001,1.000482 1.495612,-4.84e-4 1.999998,-1.000482 1.999998,-2.000481 0,-4.214389 -3.999999,0.211162 -3.988018,-3.990705 -0.01209,-1.009296 0.471866,-2.0092953 1.98802,-2.0092953 1.51615,0 1.999884,0.9999993 1.999884,0.9999993"/>
 <path style="fill:none;stroke:#ffffff;stroke-width:0.99999994;stroke-linecap:round;stroke-linejoin:round" d="m 20.503232,15.499518 c 0,0 0.504385,1.000962 2.000001,1.000482 1.495612,-4.84e-4 1.999998,-1.000482 1.999998,-2.000481 0,-4.214389 -3.999999,0.211162 -3.988018,-3.990705 -0.01209,-1.0092961 0.471866,-2.0092953 1.98802,-2.0092953 1.51615,0 1.999884,0.9999992 1.999884,0.9999992"/>
</svg>
